packages/icons/raw/imported/TravelAirplane.svg

<svg width="32" height="32" viewBox="0 0 32 32" fill="none" xmlns="http://www.w3.org/2000/svg">
<path d="M20.5518 14.96C21.5597 14.9607 22.5837 14.9615 23.874 14.9624C24.726 14.9561 26.9999 15.6555 26.9999 16.4999C27.0159 17.3601 24.7356 18.0343 23.8836 18.028H19.7857L19.3517 18.0375L13.773 27.219C13.5306 27.6179 12.9797 27.6864 12.647 27.3591V27.3591C12.4565 27.1718 12.3848 26.8948 12.4603 26.6385L13.8654 21.8736C14.0013 21.4128 14.07 20.9348 14.0696 20.4543L14.0671 18.0375L13.7158 18.028H10.6241H10.1946C9.88908 18.028 9.60034 18.1677 9.41066 18.4071L7.57906 20.7197C7.38739 20.9617 7.06211 21.0535 6.77226 20.9473V20.9473C6.42777 20.821 6.23462 20.4547 6.32515 20.0991L6.9261 17.739C6.95938 17.6083 6.88349 17.4747 6.75421 17.4363V17.4363C5.77242 17.1831 4.9987 16.8602 5 16.4905C5.00127 16.1303 5.73619 15.8145 6.68165 15.5643V15.5643C7.0976 15.4542 6.90446 15.097 6.79829 14.6801L6.32477 12.8204C6.23447 12.4658 6.42712 12.1003 6.77074 11.9744V11.9744C7.0612 11.868 7.38714 11.9609 7.57788 12.2044L9.43021 14.5695C9.61976 14.8115 9.91008 14.9529 10.2175 14.9529H10.6241L13.0905 14.9547L14.0895 14.9657V12.5431C14.0895 12.0643 14.0208 11.5881 13.8854 11.1289L12.4796 6.36146C12.404 6.10523 12.4758 5.82821 12.6662 5.64087V5.64087C12.9989 5.31357 13.5498 5.38213 13.7922 5.78099L19.3709 14.9625H20.5518" stroke="black" stroke-linejoin="round"/>
</svg>

<svg width="32" height="32" fill="none" xmlns="http://www.w3.org/2000/svg"><path d="m20.552 14.96 3.322.002c.852-.006 3.126.694 3.126 1.538.016.86-2.264 1.534-3.116 1.528h-4.098l-.434.01-5.579 9.181a.724.724 0 0 1-1.313-.58l1.405-4.765c.136-.461.205-.94.205-1.42l-.003-2.416-.351-.01H10.194a1 1 0 0 0-.783.38L7.579 20.72a.715.715 0 0 1-1.254-.62l.601-2.361a.251.251 0 0 0-.172-.303C5.772 17.183 5 16.86 5 16.491c.001-.36.736-.676 1.682-.927.416-.11.222-.467.116-.884l-.473-1.86a.714.714 0 0 1 1.253-.616L9.43 14.57a1 1 0 0 0 .787.384h.407l2.466.002 1 .01v-2.422a5 5 0 0 0-.205-1.414L12.48 6.36a.724.724 0 0 1 1.313-.58l5.578 9.181h1.18" stroke="#000" stroke-linejoin="round"/></svg>
